X: 24044
T: Lone Appendicitis
R: hornpipe
M: 4/4
K: Gmajor
D2|G2G2 GABG|A2A2 ABcA|BAGF GABG|AGFE DEFD|
G2G2 GABG|A2A2 ABcA|BAGF EDEF|G2B2G2:|
DC|B,DGD BGDB,|CEAE cAEA|DFAF cAFA|GBAG FEDC|
B,DGD BGDB,|CEAE cAEA|DFAF cAFA|G2B2G2:|

